src/lib/images/keresverse/wex.svg

<svg fill="none" viewBox="0 0 512 512" xmlns="http://www.w3.org/2000/svg"><g fill="#fff"><path clip-rule="evenodd" d="M258.184 466.602l17.476-8.738 56.796-28.398 39.321-21.845 28.398-14.199 5.461-2.73 5.461-2.731 43.689-24.029-15.291-21.845-2.048-3.276-2.048-3.277-28.671-45.874-7.281-10.922-3.641-5.461-37.136-55.704-52.427-80.825-48.059-69.903-45.873 69.903-52.428 80.825-37.135 55.704-10.923 16.383-17.475 26.214-13.107 19.66-1.457 2.184-2.912 4.369-4.37 7.282-8.737 14.563 43.689 24.029 10.316 5.461 7.16 3.791 19.66 10.408 41.505 21.845 56.796 28.398zM114.01 348.641l25.951-39.321 59.112-89.563 29.556-44.781 29.555-44.782 30.004 44.782 28.54 42.597 61.471 91.747 26.345 39.321-108.661 56.763-11.088 5.792-26.611 13.901-26.213-13.901-10.922-5.792z" fill-rule="evenodd"/><path d="M258.184 45L63.767 217.573l6.553 6.189 2.699 2.549 48.052 45.383 18.201-30.092-5.045-4.799-4.203-3.997-16.014-15.233 20.217-17.476 8.181-7.071 54.999-47.541z"/><path d="M452.602 217.573L258.184 45l61.588 100.485 52.005 45.393 10.561 9.219 20.021 17.476-15.009 15.233-3.939 3.997-4.729 4.799 18.554 30.272 46.457-45.563 2.356-2.311zm-249.029-1.308l54.611-42.382 56.179 42.382-30.751-45.787-25.428-24.993-25.047 24.993zM63.767 326.796l43.689-32.592 4.678-7.733-54.92 40.325 22.348 10.814 1.68-2.076zm168.204 84.4l26.213 5.163 26.611-5.163 11.088-5.792-37.699 6.586-37.135-6.586z"/><path d="M373.291 232.806l10.12 3.997 3.939-3.997-17.923-6.305zm-1.514-41.928l-33.93-15.902 2.875 4.69 41.616 20.431zM179.57 174.976l-37.162 18.05-8.181 7.071 42.506-20.431zm-45.343 61.827l10.365-3.997 3.814-6.305-18.382 6.305zm265.948 156.619L481 381.408l-42.747-43.003-.806.406 2.048 3.276 30.583 36.699-64.442 11.906z"/><path clip-rule="evenodd" d="M317.618 220.34l-59.434-42.088-56.838 41.505-52.94 83.01 109.778-86.502 114.3 88.686z" fill-rule="evenodd"/><path d="M443.693 226.311l8.909 4.369-9.665 8.737-42.206 38.159 5.452 8.895 46.419-36.131-7.072-7.993 13.625-11.667-13.106-6.68zM63.767 230.68l9.252-4.369-2.699-2.549-13.106 6.918 14.268 10.922-7.715 8.738 48.367 36.131 4.677-7.733-43.4-39.321zm54.005 162.742l-73.665-12.014 28.398-32.039 4.369-7.282 2.912-4.369-1.134 1.016L31 381.408l93.932 15.805zm293.15-99.218l43.864 32.592-19.387 8.738 2.048 3.277.806-.406 23.087-11.609-55.157-40.325z"/><path clip-rule="evenodd" d="M148.406 331.165l109.778-89.563 111.408 89.563-111.408 50.243zm109.778 41.505l100.486-41.505-34.79-27.227-65.696 59.994-64.267-59.994-34.034 27.227zm0-120.146l-58.98 47.185 58.98 57.67 60.292-57.67z" fill-rule="evenodd"/></g></svg>

<svg viewBox="0 0 512 512" fill="none" xmlns="http://www.w3.org/2000/svg">
<path fill-rule="evenodd" clip-rule="evenodd" d="M258.184 466.602L275.66 457.864L332.456 429.466L371.777 407.621L400.175 393.422L405.636 390.692L411.097 387.961L454.786 363.932L439.495 342.087L437.447 338.811L435.399 335.534L406.728 289.66L399.447 278.738L395.806 273.277L358.67 217.573L306.243 136.748L258.184 66.8447L212.311 136.748L159.883 217.573L122.748 273.277L111.825 289.66L94.3495 315.874L81.2427 335.534L79.7864 337.718L76.8738 342.087L72.5049 349.369L63.767 363.932L107.456 387.961L117.772 393.422L124.932 397.213L144.592 407.621L186.097 429.466L242.893 457.864L258.184 466.602ZM114.01 348.641L139.961 309.32L199.073 219.757L228.629 174.976L258.184 130.194L288.188 174.976L316.728 217.573L378.199 309.32L404.544 348.641L295.883 405.404L284.795 411.196L258.184 425.097L231.971 411.196L221.049 405.404L114.01 348.641Z" fill="#fff" class="svg-elem-1"></path>
<path d="M258.184 45L63.767 217.573L70.3204 223.762L73.0188 226.311L121.071 271.694L139.272 241.602L134.227 236.803L130.024 232.806L114.01 217.573L134.227 200.097L142.408 193.026L197.407 145.485L258.184 45Z" fill="#fff" class="svg-elem-2"></path>
<path d="M452.602 217.573L258.184 45L319.772 145.485L371.777 190.878L382.338 200.097L402.359 217.573L387.35 232.806L383.411 236.803L378.682 241.602L397.236 271.874L443.693 226.311L446.049 224L452.602 217.573Z" fill="#fff" class="svg-elem-3"></path>
<path d="M203.573 216.265L258.184 173.883L314.363 216.265L283.612 170.478L258.184 145.485L233.137 170.478L203.573 216.265Z" fill="#fff" class="svg-elem-4"></path>
<path d="M63.767 326.796L107.456 294.204L112.134 286.471L57.2136 326.796L79.5622 337.61L81.2427 335.534L63.767 326.796Z" fill="#fff" class="svg-elem-5"></path>
<path d="M231.971 411.196L258.184 416.359L284.795 411.196L295.883 405.404L258.184 411.99L221.049 405.404L231.971 411.196Z" fill="#fff" class="svg-elem-6"></path>
<path d="M373.291 232.806L383.411 236.803L387.35 232.806L369.427 226.501L373.291 232.806Z" fill="#fff" class="svg-elem-7"></path>
<path d="M371.777 190.878L337.847 174.976L340.722 179.666L382.338 200.097L371.777 190.878Z" fill="#fff" class="svg-elem-8"></path>
<path d="M179.57 174.976L142.408 193.026L134.227 200.097L176.733 179.666L179.57 174.976Z" fill="#fff" class="svg-elem-9"></path>
<path d="M134.227 236.803L144.592 232.806L148.406 226.501L130.024 232.806L134.227 236.803Z" fill="#fff" class="svg-elem-10"></path>
<path d="M400.175 393.422L481 381.408L438.253 338.405L437.447 338.811L439.495 342.087L470.078 378.786L405.636 390.692L400.175 393.422Z" fill="#fff" class="svg-elem-11"></path>
<path fill-rule="evenodd" clip-rule="evenodd" d="M317.618 220.34L258.184 178.252L201.346 219.757L148.406 302.767L258.184 216.265L372.484 304.951L317.618 220.34Z" fill="#fff" class="svg-elem-12"></path>
<path d="M443.693 226.311L452.602 230.68L442.937 239.417L400.731 277.576L406.183 286.471L452.602 250.34L445.53 242.347L459.155 230.68L446.049 224L443.693 226.311Z" fill="#fff" class="svg-elem-13"></path>
<path d="M63.767 230.68L73.0188 226.311L70.3204 223.762L57.2136 230.68L71.4824 241.602L63.767 250.34L112.134 286.471L116.811 278.738L73.4113 239.417L63.767 230.68Z" fill="#fff" class="svg-elem-14"></path>
<path d="M117.772 393.422L44.1068 381.408L72.5049 349.369L76.8738 342.087L79.7864 337.718L78.6518 338.734L31 381.408L124.932 397.213L117.772 393.422Z" fill="#fff" class="svg-elem-15"></path>
<path d="M410.922 294.204L454.786 326.796L435.399 335.534L437.447 338.811L438.253 338.405L461.34 326.796L406.183 286.471L410.922 294.204Z" fill="#fff" class="svg-elem-16"></path>
<path fill-rule="evenodd" clip-rule="evenodd" d="M148.406 331.165L258.184 241.602L369.592 331.165L258.184 381.408L148.406 331.165ZM258.184 372.67L358.67 331.165L323.88 303.938L258.184 363.932L193.917 303.938L159.883 331.165L258.184 372.67ZM258.184 252.524L199.204 299.709L258.184 357.379L318.476 299.709L258.184 252.524Z" fill="#fff" class="svg-elem-17"></path>
</svg>
